X:190
T:New Jenny Lind Polka. Le4.190
M:2/4
L:1/8
B:L.Leadley MS#4 c1850
Z:vmp. Peter Dunk 2016
Q:1/4=120
K:C
EG FA|Ge (e/^d/).e|Fd (d/^c/).d|Ec (c/B/).c|EG FA|Ge (e/^d/).e|
Fd (d/^c/).d|.c.c.cz||c'a (a/^g/).a|ge (e/^d/).e|fd (d/^c/).d|
ec (c/B/)c|c'a (a/^g/).a|ge (e/^d/).e|fd (d/^c/).d|cccz|]

